X:2
T:Dever The Dancer
R:slip jig
M:9/8
L:1/8
K:Emin
|BEE BEE G2A|BEE BAG FGA|BEE BEE G2A|Bcd ABG FED:|
|ded dAF G2A|{B}ded def gfe|ded dAF G2A|Bcd ABG FED|
|ded dAF G2A|{B}ded def gfe|afd ece D2A|Bcd ABG FED|
